public/formular-icons/english/lower-q.svg

<svg style="vertical-align:-.439ex" xmlns="http://www.w3.org/2000/svg" width="1.041ex" height="1.439ex" viewBox="0 -442 460 636" xmlns:xlink="http://www.w3.org/1999/xlink"><defs><path id="a" d="M33 157q0 101 76 192t171 92q60 0 92-52 1 1 5 6t11 11 16 12q34 24 46 24 4 0 7-3t3-5q0-9-69-285-71-284-71-288 0-8 45-9h25q6-8 6-9t-3-18q-4-13-10-19h-13q-31 2-108 2h-88q-14 0-17-1-14 0-14 8 0 3 2 15 4 16 7 19t20 3q48 0 58 7 8 5 28 88t21 85q0 1-7-3-48-39-100-39-55 0-97 40T33 157Zm319 169q-23 79-75 79-35 0-67-31t-50-81q-29-79-41-164v-11q0-8-1-12 0-45 18-62t43-18q54 0 111 72l8 11 54 217Z"/></defs><g stroke="currentColor" fill="currentColor" stroke-width="0"><use data-c="1D45E" xlink:href="#a" transform="scale(1 -1)"/></g></svg>

<svg style="vertical-align: -0.439ex" xmlns="http://www.w3.org/2000/svg" width="1.041ex" height="1.439ex" role="img" focusable="false" viewBox="0 -442 460 636" xmlns:xlink="http://www.w3.org/1999/xlink"><defs><path id="MJX-65-TEX-I-1D45E" d="M33 157Q33 258 109 349T280 441Q340 441 372 389Q373 390 377 395T388 406T404 418Q438 442 450 442Q454 442 457 439T460 434Q460 425 391 149Q320 -135 320 -139Q320 -147 365 -148H390Q396 -156 396 -157T393 -175Q389 -188 383 -194H370Q339 -192 262 -192Q234 -192 211 -192T174 -192T157 -193Q143 -193 143 -185Q143 -182 145 -170Q149 -154 152 -151T172 -148Q220 -148 230 -141Q238 -136 258 -53T279 32Q279 33 272 29Q224 -10 172 -10Q117 -10 75 30T33 157ZM352 326Q329 405 277 405Q242 405 210 374T160 293Q131 214 119 129Q119 126 119 118T118 106Q118 61 136 44T179 26Q233 26 290 98L298 109L352 326Z"></path></defs><g stroke="currentColor" fill="currentColor" stroke-width="0" transform="scale(1,-1)"><g data-mml-node="math"><g data-mml-node="mi"><use data-c="1D45E" xlink:href="#MJX-65-TEX-I-1D45E"></use></g></g></g></svg>
